X: 2
T: Hills of Sharon   (Jeremiah McLane \2511990 used by permission; j-72)
M: 6/8
Z: Transcribed to abc by Debby knight
R: jig
K: D
"Bm"F3 FEF| "G"EDB, "D"A,B,D| "A"E2E EDE| "D"FDF "A"E3|
"Bm"F2F FEF| "G"EDB, A,B,D| "A"EDC "D"D2D| "A"EDC "D"D3 :|
|: "G"B3 BAB| AGF "A"E2F-| "D"F2F BAF| "A" E3- E2D |
"D"EFF FED| "G"ABB B2g-| "Em"gfe "D/F#"dAF| "A" E3- E3 :|

